X: 25234
T: Mama's Pet
R: jig
M: 6/8
K: Dmajor
AG|:FAA Add|cAA cde|~f3 ged|cAA GED|
FAA Add|cAA cde|~f3 ged|1 cAA A2G:|2 cAA A2f||
~g3 eaf|ged cde|fef ged|cAA GED|
[1 gag eaf|ged cde|fef ged|cAA A2f:|
[2 FAA Add|cAA cde|~f3 ged|cAA A2G||

